X: 14167
T: From Kerry We Did Sail
R: waltz
M: 3/4
K: Bminor
|:fB df gf|e2 ef dc|A2 AE .F/.G/A|ed Be dB|cB ca- ag|f2- ff gf|
e2 ef dc|A2 AE .F/.G/A|ed Be dB|cB ca- az|b2- ba fd|eA g2 fg|
e2 eA ce|ae cA .c/.d/e|b2 ba fd|eA g2 fg|e2 eA ce|1 a4- ag:|2 a6||
|:f2 bb bb|f2 bb ff|g2 bb bb|g2 bb gg|
^g2 bb bb|^g2 bb ^gg|aa bb ^aa|=aa ^gg =gg:|

